art/system/n64dd.svg

<svg xmlns="http://www.w3.org/2000/svg" viewBox="0 0 3839 1608.5"><path d="m1927.2 215.4 34.6 34.6 20-20-30.1-30.1h66.9v16.4c0 3-2.4 5.4-5.4 5.4H1996V250h32c10.4 0 18.9-8.5 18.9-18.9V200h41.6v-21.9H2047v-9.7h25.8V90.3h-65.2v-9.7h81V58.7h-81V46h-28.3v12.7h-81.1v21.9h81.1v9.7h-65.2v78.1h104.6v9.7h-120.5V200h44.4zm117.3-64.5h-36.9v-16.8h36.9zm0-43.1v8.8h-36.9v-8.8zm-65.2 8.8h-36.9v-8.8h36.9zm-36.9 17.5h36.9v16.8h-36.9zm213.3 55v-3.7h36.8v64.7h28.3v-64.7h36.9v31c0 3-2.4 5.4-5.4 5.4h-17.2v28.3h32c10.4 0 18.9-8.5 18.9-18.9V58.6h-158.7v130.6c.1 17.7-10.6 32.5-23.1 45.1 6.7 6.6 17.2 15.5 23.9 22.1a95 95 0 0 0 27.6-67.3m0-32v-20.9h36.8v20.9zm102.1-49.2h-36.9v-21h36.9zm-65.3 0h-36.8v-21h36.8zm28.3 49.2v-20.9h36.9v20.9zm279.4-97.5h15.1v45.5h-15.1zm34.2 0h15.1v45.5h-15.1zM3160 160.4c29 2 56.7 13.4 83.2 27.1 5-9.7 12.1-26.1 17.1-35.8a224 224 0 0 0-100.3-24.8V64.5h-32.8v185.6h32.8zm148.6-99.1h122v32.8h-122zM3545.1 250h32.8V135.4c23.1-18.2 41.7-42.4 53.1-70.9h-36a138.6 138.6 0 0 1-123.6 74.9v32.8c26 .1 51.1-5.8 73.7-16.5zm-1158-186.9h93v32.8h-93zM2552 191.3c16.5-.9 34.6-5.9 51.8-14.3v73.1h32.8v-94.3c18.6-15.5 33.3-35.5 39.5-58.3h-32.8c-14.2 34.7-65.9 61.2-96.8 61.2zm146.4 26.4c.8 2.9 7.8 30.3 8.3 32.3 31.9-3.5 63-26.3 85.4-56 19.3 15 35.3 39.8 51.6 63.7l23.9-29.1c-17.4-23.3-37.2-47.9-58.3-62.2 10.2-20.2 16.3-41.6 16.3-61.3V72.3H2706v32.8h86.8c-.1 25.4-27.1 91.7-94.4 112.6M3209 59.6h15.1v45.5H3209zm34.2 0h15.1v45.5h-15.1zm580.7 0h15.1V105h-15.1zm-482.4 157.7h-37.9l5.1 32.8h32.8c69.6 0 104-50.3 104-102.5v-32.4h-160V148h127.2c-.2 35.6-23.7 69.3-71.2 69.3M2943.7 105h61.7v10.1h.1c0 58.4-54.1 97.2-111.5 102.5 1.6 11.5 3.5 22.9 5.1 32.4 80.8-12.3 139.2-59.7 139.2-134.9h-.1V72.2H2956c.8-2.5 1.5-4.9 2.2-7.3l-32.3-8c-8.4 30.2-22.1 67.2-44.3 89.6l13.5 31.1c20.1-18.7 36.5-45.2 48.6-72.6m823.7 13.3c0 62.4-36.7 99.6-99 99.6h-5.1l5 32.2c90.8 0 131.9-51.3 131.9-131.7V59.6h-15.1v41.9h-11.9V72.3h-116.3v32.8h110.5zM190.9 259.8V60.4h-60.7v114.4h-.5l-40-114.4H0v199.4h60.7V144.7h.5l40 115.1zm338.4 0V60.4h-60.6v114.4h-.5L428.1 60.4h-89.7v199.4h60.7V144.7h.5l40 115.1zm582.8 0V60.4h-60.6v114.4h-.6l-40-114.4h-89.7v199.4h60.7V144.7h.5l40 115.1zM227.5 60.4h74.8v199.3h-74.8zm493.6 54.2V60.4H551v54.2h47.6v145.2h74.8V114.6zm611.5 47.6c0-59-24.1-101.8-99.7-101.8h-88.6v199.3h93.1c58.1 0 95.2-37.3 95.2-97.5m-115.1 52.4V105.9h7.3c12.1 0 20.1 3.7 24.8 11.7 4.9 8.3 5.5 23.4 5.5 42.7 0 19.2-.5 34.3-5.5 42.6-4.7 8-12.8 11.7-24.8 11.7zm232.4 50.5c65.2 0 97.6-42.7 97.6-104.9s-32.5-105-97.6-105c-65.2 0-97.6 42.8-97.6 105 0 62.1 32.5 104.9 97.6 104.9m0-159.4c12 0 20.1 6.8 20.1 54.5 0 48.8-8.6 54.4-20.1 54.4s-20.2-5.7-20.1-54.4c0-47.8 8.1-54.5 20.1-54.5m190 58.8c33.6 0 58.8-25.4 58.8-58.1 0-34.1-22.9-52.3-47.9-52.3-13 0-22.8 3.2-30.6 10.1h-.8c4.3-15.2 17-28.6 48.6-30.1 5.4-.3 9.3-.4 13.2-.1l.2-33.5c-3.2-.3-7.4-.7-14.2-.3-25.8.6-46.9 8.2-63.3 23.4-17.2 16.1-27.7 41.1-27.7 70.7 0 36.3 19.3 70.2 63.7 70.2m-20.5-67.7c2.5-6.5 9.1-11.7 17.4-11.7 13.7 0 18.8 12.3 18.9 23.6 0 13.3-6.2 23.8-16.5 23.8-14.1.1-20.2-13.3-21.1-26.1 0-4.8.3-7.6 1.3-9.6m157.5 65.1h40v-35.8h16.9V93.3h-16.9v-91h-53.1l-53.4 95.1v28.7h66.5zm-28-68.6.2-.5 13.1-26.5c5.6-11.1 9.9-21.3 14.9-32.1h.9c-.5 11.2-1.1 21.7-1.1 31.8v27.4zm-863.6 91.9V134h-68.5v-20.9h74.4V60.4h-148v199.4h150.3v-52.3h-76.7v-22.3zm2398.2 197.6H2825V776c-59-230-239.7-393.2-534.1-393.2h-458.4v687.5h-181.9V382.7H1249L899.4 1006c-55.9-152.4-190.7-232.1-334.9-232.1-98.7 0-172 23.9-231.2 75.8h-5.7c32.8-114.9 129-216.3 367.6-227.7 41.1-1.9 70-2.6 100.1-.5V368c-24.6-2.3-55.4-5-107.2-2.3-195.5 4.8-354.8 62.6-478.8 177.1C79.4 664.7.1 853.9.1 1077.4c0 274.8 146.2 531.2 482 531.1 200.5 0 360.8-119.3 419.9-290.6h446.4v270.4l302.2-.1v-270.4h181.9v270.5h458.4c294.4 0 475.1-163.2 534.1-393.2v393.2h458.4c365.4 0 555.5-251.4 555.5-569.8v-66c.1-318.4-190.1-569.7-555.4-569.7M477.3 1365.7h-1.6c-105.6 0-151.9-101.3-158.5-197.6 0-35.8 2.8-57.1 9.9-72 18.4-48.6 68-88.4 131-88.4 104 0 143 92.7 143.5 178.1 0 101-46.6 179.9-124.3 179.9m871.1-502.6v207.3h-210.9l1.3-3.8 99-200.8c42.2-83.9 74.7-161.3 112.5-242.7h6.4c-4 83.9-8.3 163.6-8.3 240m942.5 476h-143.6v-707h143.6c113.1 0 210.5 114.9 210.5 353.5s-97.4 353.5-210.5 353.5m992.6 0h-143.6v-707h143.6c113.1 0 210.5 114.9 210.5 353.5s-97.4 353.5-210.5 353.5M2362.8 120.4v32.8h73.8v21c0 18.7 4.7 29.6-56 48.8l8.5 27.1c44.5-11.4 80.3-24.5 80.3-75.9v-21h61.5v-32.8z" class="st0" style="fill:#fff;stroke-width:1.11111" transform="matrix(.9 0 0 .9 178.42 149.7)"/></svg>

<?xml version="1.0" encoding="utf-8"?>
<svg version="1.1" viewBox="0 0 3839 1608.5" xmlns="http://www.w3.org/2000/svg">
  <path class="st0" d="M 1927.2 215.4 L 1961.8 250 L 1981.8 230 L 1951.7 199.9 L 2018.6 199.9 L 2018.6 216.3 C 2018.6 219.3 2016.2 221.7 2013.2 221.7 L 1996 221.7 L 1996 250 L 2028 250 C 2038.4 250 2046.9 241.5 2046.9 231.1 L 2046.9 221.7 L 2046.9 200 L 2088.5 200 L 2088.5 178.1 L 2047 178.1 L 2047 168.4 L 2072.8 168.4 L 2072.8 90.3 L 2062.7 90.3 L 2062.7 90.3 L 2007.6 90.3 L 2007.6 80.6 L 2088.6 80.6 L 2088.6 58.7 L 2007.6 58.7 L 2007.6 46 L 1979.3 46 L 1979.3 58.7 L 1898.2 58.7 L 1898.2 80.6 L 1979.3 80.6 L 1979.3 90.3 L 1929.5 90.3 L 1929.5 90.3 L 1914.1 90.3 L 1914.1 168.4 L 1942.4 168.4 L 1942.4 168.4 L 2018.7 168.4 L 2018.7 178.1 L 1898.2 178.1 L 1898.2 200 L 1942.6 200 L 1927.2 215.4 Z M 2044.5 150.9 L 2007.6 150.9 L 2007.6 134.1 L 2044.5 134.1 L 2044.5 150.9 Z M 2044.5 107.8 L 2044.5 116.6 L 2007.6 116.6 L 2007.6 107.8 L 2044.5 107.8 Z M 1979.3 116.6 L 1942.4 116.6 L 1942.4 107.8 L 1979.3 107.8 L 1979.3 116.6 Z M 1942.4 134.1 L 1979.3 134.1 L 1979.3 150.9 L 1942.4 150.9 L 1942.4 134.1 Z" style="fill: rgb(255, 255, 255);"/>
  <path class="st0" d="M 2155.7 189.1 L 2155.7 189.1 L 2155.7 185.4 L 2192.5 185.4 L 2192.5 250.1 L 2220.8 250.1 L 2220.8 185.4 L 2257.7 185.4 L 2257.7 200 L 2257.7 200 L 2257.7 216.4 C 2257.7 219.4 2255.3 221.8 2252.3 221.8 L 2235.1 221.8 L 2235.1 250.1 L 2267.1 250.1 C 2277.5 250.1 2286 241.6 2286 231.2 L 2286 221.8 L 2286 154.7 L 2286 154.7 L 2286 58.6 L 2278.1 58.6 L 2278.1 58.6 L 2136.7 58.6 L 2127.3 58.6 L 2127.3 189.2 C 2127.4 206.9 2116.7 221.7 2104.2 234.3 C 2110.9 240.9 2121.4 249.8 2128.1 256.4 C 2145.9 238.5 2155.8 214.3 2155.7 189.1 Z M 2155.7 157.1 L 2155.7 136.2 L 2192.5 136.2 L 2192.5 157.1 L 2155.7 157.1 Z M 2257.8 107.9 L 2220.9 107.9 L 2220.9 86.9 L 2257.8 86.9 L 2257.8 107.9 Z M 2192.5 107.9 L 2155.7 107.9 L 2155.7 86.9 L 2192.5 86.9 L 2192.5 107.9 Z M 2220.8 157.1 L 2220.8 136.2 L 2257.7 136.2 L 2257.7 157.1 L 2220.8 157.1 Z" style="fill: rgb(255, 255, 255);"/>
  <rect x="2500.2" y="59.6" class="st0" width="15.1" height="45.5" style="fill: rgb(255, 255, 255);"/>
  <rect x="2534.4" y="59.6" class="st0" width="15.1" height="45.5" style="fill: rgb(255, 255, 255);"/>
  <path class="st0" d="M 3160 160.4 C 3189 162.4 3216.7 173.8 3243.2 187.5 C 3248.2 177.8 3255.3 161.4 3260.3 151.7 C 3229.1 135.6 3194.7 127.3 3160 126.9 L 3160 64.5 L 3127.2 64.5 L 3127.2 250.1 L 3160 250.1 L 3160 160.4 Z" style="fill: rgb(255, 255, 255);"/>
  <rect x="3308.6" y="61.3" class="st0" width="122" height="32.8" style="fill: rgb(255, 255, 255);"/>
  <path class="st0" d="M 3545.1 250 L 3577.9 250 L 3577.9 135.4 C 3601 117.2 3619.6 93 3631 64.5 L 3595 64.5 C 3571.3 110.3 3523.8 139.6 3471.4 139.4 L 3471.4 172.2 C 3497.4 172.3 3522.5 166.4 3545.1 155.7 L 3545.1 250 Z" style="fill: rgb(255, 255, 255);"/>
  <rect x="2387.1" y="63.1" class="st0" width="93" height="32.8" style="fill: rgb(255, 255, 255);"/>
  <path class="st0" d="M 2552 191.3 C 2568.5 190.4 2586.6 185.4 2603.8 177 L 2603.8 250.1 L 2636.6 250.1 L 2636.6 155.8 C 2655.2 140.3 2669.9 120.3 2676.1 97.5 C 2665.2 97.5 2654.2 97.5 2643.3 97.5 C 2629.1 132.2 2577.4 158.7 2546.5 158.7 L 2552 191.3 Z" style="fill: rgb(255, 255, 255);"/>
  <path class="st0" d="M 2698.4 217.7 C 2699.2 220.6 2706.2 248 2706.7 250 C 2738.6 246.5 2769.7 223.7 2792.1 194 C 2811.4 209 2827.4 233.8 2843.7 257.7 L 2867.6 228.6 C 2850.2 205.3 2830.4 180.7 2809.3 166.4 C 2819.5 146.2 2825.6 124.8 2825.6 105.1 L 2825.6 72.3 L 2706 72.3 L 2706 105.1 L 2792.8 105.1 C 2792.7 130.5 2765.7 196.8 2698.4 217.7 Z" style="fill: rgb(255, 255, 255);"/>
  <rect x="3209" y="59.6" class="st0" width="15.1" height="45.5" style="fill: rgb(255, 255, 255);"/>
  <rect x="3243.2" y="59.6" class="st0" width="15.1" height="45.5" style="fill: rgb(255, 255, 255);"/>
  <rect x="3823.9" y="59.6" class="st0" width="15.1" height="45.4" style="fill: rgb(255, 255, 255);"/>
  <path class="st0" d="M 3341.5 217.3 L 3303.6 217.3 L 3308.7 250.1 L 3341.5 250.1 C 3411.1 250.1 3445.5 199.8 3445.5 147.6 L 3445.5 147.6 L 3445.5 115.2 L 3285.5 115.2 L 3285.5 148 L 3412.7 148 C 3412.5 183.6 3389 217.3 3341.5 217.3 Z" style="fill: rgb(255, 255, 255);"/>
  <path class="st0" d="M 2943.7 105 L 3005.4 105 L 3005.4 115.1 L 3005.5 115.1 C 3005.5 173.5 2951.4 212.3 2894 217.6 C 2895.6 229.1 2897.5 240.5 2899.1 250 C 2979.9 237.7 3038.3 190.3 3038.3 115.1 C 3038.3 115.1 3038.2 115.1 3038.2 115.1 L 3038.2 96.8 L 3038.2 96.8 L 3038.2 72.2 L 2956 72.2 C 2956.8 69.7 2957.5 67.3 2958.2 64.9 L 2925.9 56.9 C 2917.5 87.1 2903.8 124.1 2881.6 146.5 L 2895.1 177.6 C 2915.2 158.9 2931.6 132.4 2943.7 105 Z" style="fill: rgb(255, 255, 255);"/>
  <path class="st0" d="M 3767.4 118.3 C 3767.4 180.7 3730.7 217.9 3668.4 217.9 C 3668.4 217.9 3668.4 217.9 3663.3 217.9 C 3663.3 217.9 3667.8 246.9 3668.3 250.1 C 3759.1 250.1 3800.2 198.8 3800.2 118.4 L 3800.2 118.4 L 3800.2 118.3 C 3800.2 118.3 3800.2 118.3 3800.2 118.3 L 3800.2 118.3 L 3800.2 105 L 3800.2 105 L 3800.2 59.6 L 3785.1 59.6 L 3785.1 101.5 L 3773.2 101.5 L 3773.2 72.3 L 3656.9 72.3 L 3656.9 105.1 L 3767.4 105.1 L 3767.4 118.3 Z" style="fill: rgb(255, 255, 255);"/>
  <polygon class="st0" points="60.7 144.7 61.2 144.7 101.2 259.8 190.9 259.8 190.9 60.4 130.2 60.4 130.2 174.8 129.7 174.8 89.7 60.4 0 60.4 0 259.8 60.7 259.8" style="fill: rgb(255, 255, 255);"/>
  <polygon class="st0" points="399.1 144.7 399.6 144.7 439.6 259.8 529.3 259.8 529.3 60.4 468.7 60.4 468.7 174.8 468.2 174.8 428.1 60.4 338.4 60.4 338.4 259.8 399.1 259.8" style="fill: rgb(255, 255, 255);"/>
  <polygon class="st0" points="981.9 144.7 982.4 144.7 1022.4 259.8 1112.1 259.8 1112.1 60.4 1051.5 60.4 1051.5 174.8 1050.9 174.8 1010.9 60.4 921.2 60.4 921.2 259.8 981.9 259.8" style="fill: rgb(255, 255, 255);"/>
  <rect x="227.5" y="60.4" class="st0" width="74.8" height="199.3" style="fill: rgb(255, 255, 255);"/>
  <polygon class="st0" points="598.6 259.8 673.4 259.8 673.4 114.6 721.1 114.6 721.1 60.4 551 60.4 551 114.6 598.6 114.6" style="fill: rgb(255, 255, 255);"/>
  <path class="st0" d="M 1332.6 162.2 C 1332.6 103.2 1308.5 60.4 1232.9 60.4 L 1144.3 60.4 L 1144.3 259.7 L 1237.4 259.7 C 1295.5 259.7 1332.6 222.4 1332.6 162.2 Z M 1217.5 214.6 L 1217.5 105.9 L 1224.8 105.9 C 1236.9 105.9 1244.9 109.6 1249.6 117.6 C 1254.5 125.9 1255.1 141 1255.1 160.3 C 1255.1 179.5 1254.6 194.6 1249.6 202.9 C 1244.9 210.9 1236.8 214.6 1224.8 214.6 L 1217.5 214.6 Z" style="fill: rgb(255, 255, 255);"/>
  <path class="st0" d="M 1449.9 265.1 C 1515.1 265.1 1547.5 222.4 1547.5 160.2 C 1547.5 98 1515 55.2 1449.9 55.2 C 1384.7 55.2 1352.3 98 1352.3 160.2 C 1352.3 222.3 1384.8 265.1 1449.9 265.1 Z M 1449.9 105.7 C 1461.9 105.7 1470 112.5 1470 160.2 C 1470 209 1461.4 214.6 1449.9 214.6 C 1438.4 214.6 1429.7 208.9 1429.8 160.2 C 1429.8 112.4 1437.9 105.7 1449.9 105.7 Z" style="fill: rgb(255, 255, 255);"/>
  <path class="st0" d="M 1639.9 164.5 C 1673.5 164.5 1698.7 139.1 1698.7 106.4 C 1698.7 72.3 1675.8 54.1 1650.8 54.1 C 1637.8 54.1 1628 57.3 1620.2 64.2 L 1619.4 64.2 C 1623.7 49 1636.4 35.6 1668 34.1 C 1673.4 33.8 1677.3 33.7 1681.2 34 L 1681.4 0.5 C 1678.2 0.2 1674 -0.2 1667.2 0.2 C 1641.4 0.8 1620.3 8.4 1603.9 23.6 C 1586.7 39.7 1576.2 64.7 1576.2 94.3 C 1576.2 130.6 1595.5 164.5 1639.9 164.5 Z M 1619.4 96.8 C 1621.9 90.3 1628.5 85.1 1636.8 85.1 C 1650.5 85.1 1655.6 97.4 1655.7 108.7 C 1655.7 122 1649.5 132.5 1639.2 132.5 C 1625.1 132.6 1619 119.2 1618.1 106.4 C 1618.1 101.6 1618.4 98.8 1619.4 96.8 Z" style="fill: rgb(255, 255, 255);"/>
  <path class="st0" d="M 1776.9 161.9 L 1776.9 161.9 L 1816.9 161.9 L 1816.9 126.1 L 1833.8 126.1 L 1833.8 93.3 L 1816.9 93.3 L 1816.9 2.3 L 1763.8 2.3 L 1710.4 97.4 L 1710.4 126.1 L 1776.9 126.1 L 1776.9 161.9 Z M 1748.9 93.3 L 1749.1 92.8 L 1762.2 66.3 C 1767.8 55.2 1772.1 45 1777.1 34.2 L 1778 34.2 C 1777.5 45.4 1776.9 55.9 1776.9 66 L 1776.9 93.4 L 1748.9 93.3 Z" style="fill: rgb(255, 255, 255);"/>
  <polygon class="st0" points="893.5 207.5 816.8 207.5 816.8 185.2 885.3 185.2 885.3 134 816.8 134 816.8 113.1 891.2 113.1 891.2 60.4 743.2 60.4 743.2 259.8 893.5 259.8" style="fill: rgb(255, 255, 255);"/>
  <path class="st0" d="M 3283.5 382.8 L 3139.9 382.8 L 2944.7 382.8 L 2908.8 382.8 L 2846.5 382.8 L 2825 382.8 L 2825 776 C 2766 546 2585.3 382.8 2290.9 382.8 L 2147.3 382.8 L 1952.1 382.8 L 1916.2 382.8 L 1853.9 382.8 L 1832.5 382.8 L 1832.5 1070.3 L 1650.6 1070.3 L 1650.6 382.7 L 1249 382.7 L 899.4 1006 C 843.5 853.6 708.7 773.9 564.5 773.9 C 465.8 773.9 392.5 797.8 333.3 849.7 L 327.6 849.7 C 360.4 734.8 456.6 633.4 695.2 622 C 736.3 620.1 765.2 619.4 795.3 621.5 L 795.3 368 C 770.7 365.7 739.9 363 688.1 365.7 C 492.6 370.5 333.3 428.3 209.3 542.8 C 79.4 664.7 0.1 853.9 0.1 1077.4 C 0.1 1352.2 146.3 1608.6 482.1 1608.5 C 682.6 1608.5 842.9 1489.2 902 1317.9 L 1348.4 1317.9 L 1348.4 1588.3 L 1650.6 1588.2 L 1650.6 1317.8 L 1832.5 1317.8 L 1832.5 1588.3 L 1853.9 1588.3 L 1916.2 1588.3 L 1952.1 1588.3 L 2147.3 1588.3 L 2290.9 1588.3 C 2585.3 1588.3 2766 1425.1 2825 1195.1 L 2825 1588.3 L 2846.4 1588.3 L 2908.7 1588.3 L 2944.6 1588.3 L 3139.8 1588.3 L 3283.4 1588.3 C 3648.8 1588.3 3838.9 1336.9 3838.9 1018.5 L 3838.9 952.5 C 3839 634.1 3648.8 382.8 3283.5 382.8 Z M 477.3 1365.7 L 475.7 1365.7 C 370.1 1365.7 323.8 1264.4 317.2 1168.1 C 317.2 1132.3 320 1111 327.1 1096.1 C 345.5 1047.5 395.1 1007.7 458.1 1007.7 C 562.1 1007.7 601.1 1100.4 601.6 1185.8 C 601.6 1286.8 555 1365.7 477.3 1365.7 Z M 1348.4 863.1 L 1348.4 1070.4 L 1137.5 1070.4 L 1138.8 1066.6 L 1237.8 865.8 C 1280 781.9 1312.5 704.5 1350.3 623.1 L 1356.7 623.1 C 1352.7 707 1348.4 786.7 1348.4 863.1 Z M 2290.9 1339.1 L 2147.3 1339.1 L 2147.3 632.1 L 2290.9 632.1 C 2404 632.1 2501.4 747 2501.4 985.6 C 2501.4 1224.2 2404 1339.1 2290.9 1339.1 Z M 3283.5 1339.1 L 3139.9 1339.1 L 3139.9 632.1 L 3283.5 632.1 C 3396.6 632.1 3494 747 3494 985.6 C 3494 1224.2 3396.6 1339.1 3283.5 1339.1 Z" style="fill: rgb(255, 255, 255);"/>
  <path class="st0" d="M 2362.8 120.4 L 2362.8 153.2 L 2436.6 153.2 L 2436.6 174.1 L 2436.6 174.2 C 2436.6 192.9 2441.3 203.8 2380.6 223 L 2389.1 250.1 C 2433.6 238.7 2469.4 225.6 2469.4 174.2 L 2469.4 174.1 L 2469.4 153.2 L 2530.9 153.2 L 2530.9 120.4 L 2362.8 120.4 Z" style="fill: rgb(255, 255, 255);"/>
</svg>
